dist/assets/images/brands/brandsIco/control (1) (Traced).svg

<svg width="28" height="21" viewBox="0 0 28 21" fill="none" xmlns="http://www.w3.org/2000/svg">
<path opacity="0.6" fill-rule="evenodd" clip-rule="evenodd" d="M1.97486 0.0851345C1.05048 0.329876 0.325443 1.05398 0.0815932 1.97586C0.0109921 2.24268 0 3.38561 0 10.4506C0 15.78 0.0194139 18.7176 0.0558356 18.9067C0.24817 19.9053 1.12743 20.7574 2.15653 20.9425C2.38305 20.9833 5.96582 21.0006 14.0236 21C26.6122 20.999 25.9846 21.0142 26.5933 20.6942C27.2493 20.3493 27.8087 19.6091 27.944 18.9067C27.9804 18.7176 27.9998 15.78 27.9998 10.4506C27.9998 1.46312 28.0195 1.99697 27.6635 1.33926C27.5706 1.1677 27.3548 0.89593 27.1838 0.735354C26.6188 0.204732 26.0379 0 25.0973 0C24.5906 0 24.4958 0.014539 24.3705 0.111628C24.188 0.252926 24.1725 0.538754 24.3391 0.691522C24.4341 0.778703 24.5566 0.798465 25.1184 0.81742C25.6877 0.83659 25.8292 0.859906 26.0883 0.97735C26.5189 1.17255 26.7677 1.40959 26.9733 1.82089L27.1522 2.1786V10.4993V18.82L27.0055 19.128C26.8156 19.5272 26.4396 19.8841 26.0432 20.0418L25.7303 20.1662L14.246 20.1812C7.00274 20.1906 2.63406 20.1768 2.41608 20.1438C1.75032 20.0429 1.26415 19.6947 0.992462 19.1242L0.84765 18.82V10.5004V2.18086L0.989892 1.88222C1.19289 1.45606 1.43308 1.21251 1.84919 1.01079L2.21248 0.834651L12.7043 0.807727C23.0106 0.781287 23.1976 0.778972 23.2738 0.676283C23.4026 0.502729 23.3716 0.238872 23.2073 0.111628L23.0632 0L12.6664 0.0035541C3.76767 0.00656961 2.22708 0.0183085 1.97486 0.0851345ZM4.72628 2.15367C4.09191 2.40159 3.7155 2.92402 3.67503 3.61269L3.65075 4.02555L3.23146 4.04946C2.33563 4.10051 1.74889 4.68137 1.75053 5.51559C1.75152 6.03232 2.12339 6.58389 2.61519 6.7981C2.7459 6.85502 3.0353 6.91516 3.25842 6.9318L3.66404 6.96201V9.98652C3.66404 12.9558 3.66606 13.0132 3.77554 13.1288C3.9273 13.2893 4.20905 13.286 4.36545 13.1221L4.48434 12.9975V9.97198V6.94645H5.30569H6.12704L6.11233 12.264L6.09761 17.5815L5.97025 17.7573C5.622 18.2381 4.9925 18.2344 4.62445 17.7494C4.51732 17.6082 4.51087 17.5199 4.49566 15.9767C4.48013 14.4045 4.47592 14.3487 4.3631 14.2305C4.20768 14.0676 3.92621 14.0669 3.77281 14.229C3.66114 14.3471 3.6589 14.3884 3.67497 16.0733L3.69138 17.7969L3.85358 18.0853C4.16295 18.6352 4.66618 18.9259 5.30465 18.9234C5.64048 18.9221 5.76621 18.8957 5.99847 18.7775C6.34639 18.6005 6.62824 18.322 6.79323 17.9922L6.91792 17.7431L6.93263 12.3525L6.94729 6.96185L7.34628 6.93213C7.8301 6.8961 8.06444 6.80547 8.36505 6.53801C8.93106 6.03453 9.01238 5.29228 8.57144 4.65396C8.31113 4.27707 7.92444 4.08064 7.38211 4.04967L6.95877 4.02555L6.93356 3.64172C6.9048 3.20425 6.76879 2.85876 6.51192 2.57067C6.10986 2.1198 5.29809 1.93025 4.72628 2.15367ZM13.1249 2.09336C12.8114 2.19497 12.5234 2.37967 12.3154 2.6124C11.8989 3.07825 11.9218 2.72425 11.9218 8.70611V14.0544H11.6036C10.6583 14.0544 10.0077 14.6489 10.0077 15.5128C10.0077 16.3535 10.6871 16.9623 11.6252 16.9623H11.9102L11.9309 17.3796C11.9765 18.3007 12.6179 18.9178 13.5351 18.9232C14.4403 18.9284 15.1057 18.2912 15.1866 17.3417L15.2177 16.9767L15.6221 16.9466C16.1112 16.9102 16.4338 16.7682 16.7088 16.4685C17.2552 15.873 17.2354 15.0698 16.6604 14.5045C16.3421 14.1915 15.9871 14.0544 15.4949 14.0544H15.2051L15.1904 8.68306L15.1757 3.31168L15.0324 3.01088C14.8566 2.64164 14.5559 2.33718 14.2244 2.19282C13.9544 2.07527 13.3496 2.0205 13.1249 2.09336ZM21.2634 2.13132C20.916 2.2366 20.4503 2.66221 20.2825 3.0279L20.1522 3.31168L20.1358 6.09074L20.1194 8.86986L19.7222 8.89943C19.2541 8.93427 19.0157 9.02242 18.7365 9.26382C18.0774 9.83364 18.0813 10.8421 18.7449 11.4172C19.0275 11.6621 19.4055 11.7928 19.8314 11.7928H20.1197L20.1359 14.741C20.1519 17.6317 20.1545 17.6941 20.2704 17.941C20.3354 18.0795 20.4897 18.3009 20.6134 18.433C21.2523 19.1155 22.3835 19.0921 23.0172 18.3832C23.4367 17.914 23.4272 17.9948 23.4481 14.7216L23.4667 11.8079L23.8638 11.7783C24.3415 11.7428 24.5803 11.6515 24.8701 11.3937C25.4757 10.855 25.4792 9.826 24.8773 9.29053C24.593 9.0376 24.3295 8.93647 23.8604 8.90029L23.467 8.86992L23.4502 6.0908L23.4334 3.31168L23.3032 3.0279C22.9563 2.27214 22.0758 1.88513 21.2634 2.13132ZM5.73405 3.00146C5.98332 3.18471 6.07787 3.36241 6.10965 3.7073L6.14016 4.03863H5.31225H4.48434V3.78641C4.48434 3.64215 4.53236 3.4365 4.59651 3.30603C4.80164 2.88881 5.37279 2.73582 5.73405 3.00146ZM13.9951 3.00372C14.073 3.06085 14.1858 3.18982 14.246 3.29041C14.3531 3.4694 14.3557 3.58361 14.3701 8.76384L14.3848 14.0544H13.5634H12.7421V8.76297C12.7421 3.74624 12.7473 3.46181 12.8418 3.28389C13.0491 2.89414 13.6477 2.74869 13.9951 3.00372ZM22.1335 2.95973C22.267 3.01939 22.4114 3.1384 22.4751 3.24125C22.5818 3.41367 22.5854 3.50672 22.5856 6.15219L22.5858 8.88499H21.7928H20.9999V6.16296C20.9999 3.19596 20.9946 3.24889 21.3135 3.02607C21.5881 2.83421 21.8121 2.81606 22.1335 2.95973ZM9.14227 3.84015C9.07686 3.9087 9.02338 4.03099 9.02338 4.11187C9.02338 4.29894 9.24705 4.52327 9.43353 4.52327C9.51146 4.52327 9.6356 4.46377 9.70942 4.39107C9.78325 4.31838 9.84368 4.19614 9.84368 4.11941C9.84368 3.93169 9.61596 3.71554 9.41822 3.71554C9.32481 3.71554 9.21303 3.766 9.14227 3.84015ZM17.3905 3.82324C17.2401 3.97132 17.2454 4.27088 17.4008 4.41347C17.6083 4.60377 17.8921 4.5503 18.0258 4.29581C18.2326 3.90181 17.7075 3.51113 17.3905 3.82324ZM25.5429 3.85743C25.4805 3.93546 25.4295 4.0577 25.4295 4.1291C25.4295 4.30034 25.6615 4.52327 25.8397 4.52327C26.0332 4.52327 26.2498 4.2991 26.2498 4.09884C26.2498 3.75609 25.758 3.58814 25.5429 3.85743ZM7.6562 4.9407C7.93198 5.07635 8.07395 5.3807 7.99006 5.65646C7.95539 5.77045 7.86275 5.91348 7.78422 5.97427C7.64526 6.08191 7.57898 6.08488 5.30465 6.08488C3.06406 6.08488 2.96224 6.08051 2.83115 5.97901C2.43374 5.67116 2.52868 5.09498 3.00785 4.90683C3.09004 4.87458 4.00572 4.85185 5.30465 4.84986C7.25594 4.84685 7.48328 4.85562 7.6562 4.9407ZM9.13275 5.65409C8.87293 5.90992 9.12302 6.40183 9.47744 6.33199C9.69614 6.28896 9.77751 6.20883 9.82121 5.99349C9.89214 5.6445 9.39257 5.39825 9.13275 5.65409ZM17.3874 5.65716C17.1231 5.91735 17.4125 6.44388 17.754 6.32418C17.8336 6.29623 17.9481 6.20824 18.0083 6.12871C18.1049 6.00076 18.1095 5.96468 18.0474 5.81698C17.9276 5.53244 17.5957 5.45205 17.3874 5.65716ZM25.5429 5.68828C25.4805 5.76631 25.4295 5.88854 25.4295 5.95995C25.4295 6.13118 25.6615 6.35412 25.8397 6.35412C26.0303 6.35412 26.2498 6.12989 26.2498 5.93518C26.2498 5.58139 25.7638 5.41166 25.5429 5.68828ZM9.13275 7.48493C8.93489 7.67976 9.0172 8.03667 9.28287 8.13612C9.47033 8.20629 9.69947 8.11464 9.78189 7.93645C9.8684 7.74955 9.85998 7.68143 9.73032 7.51913C9.58829 7.34132 9.29561 7.32457 9.13275 7.48493ZM17.3716 7.47573C17.2269 7.63323 17.2545 7.94109 17.4252 8.07334C17.6227 8.22632 17.7527 8.2135 17.9472 8.02207C18.0798 7.89149 18.1056 7.83005 18.0773 7.71244C18.0035 7.40535 17.57 7.2599 17.3716 7.47573ZM25.5484 7.50184C25.3513 7.70846 25.3983 7.97689 25.6544 8.10732C25.8446 8.20419 26.0576 8.16192 26.169 8.00527C26.4522 7.60733 25.8859 7.14811 25.5484 7.50184ZM17.5546 9.19295C17.2706 9.29392 17.1766 9.69057 17.3912 9.88184C17.6438 10.1069 18.065 9.92142 18.065 9.58502C18.065 9.33296 17.7789 9.1132 17.5546 9.19295ZM25.6692 9.23399C25.3247 9.37663 25.3496 9.81943 25.7098 9.95426C25.9055 10.0276 26.1812 9.90063 26.2284 9.71545C26.318 9.36392 26.0054 9.09479 25.6692 9.23399ZM9.10852 9.32779C8.94911 9.55185 9.00861 9.81614 9.24568 9.93687C9.4309 10.0312 9.62515 9.97602 9.75613 9.79186C9.87278 9.62789 9.86649 9.52041 9.73032 9.34998C9.57916 9.1607 9.23605 9.14848 9.10852 9.32779ZM24.1764 9.79153C24.4679 9.93989 24.5839 10.3457 24.4224 10.6531C24.2633 10.9562 24.2465 10.9582 21.7928 10.9582C19.3392 10.9582 19.3223 10.9562 19.1632 10.6531C19.0079 10.3574 19.1096 9.94161 19.3683 9.81474C19.59 9.70602 19.6696 9.70274 21.8748 9.71125C23.5561 9.71781 24.0663 9.73559 24.1764 9.79153ZM9.29681 11.0233C8.86249 11.1806 8.98181 11.7928 9.44676 11.7928C9.61957 11.7928 9.84368 11.5925 9.84368 11.4381C9.84368 11.2788 9.70948 11.0948 9.55455 11.0416C9.46399 11.0105 9.38737 10.987 9.38437 10.9893C9.3813 10.9917 9.34193 11.0069 9.29681 11.0233ZM17.4292 11.0936C17.2331 11.2455 17.2186 11.582 17.4027 11.709C17.8006 11.9834 18.2985 11.5319 17.9824 11.1831C17.8019 10.984 17.6107 10.953 17.4292 11.0936ZM25.6655 11.0393C25.2786 11.1928 25.4188 11.7928 25.8415 11.7928C26.2738 11.7928 26.4098 11.2587 26.0271 11.0639C25.8523 10.9749 25.8316 10.9735 25.6655 11.0393ZM22.5858 14.6521C22.5858 17.8356 22.5937 17.7643 22.217 17.9935C21.8443 18.2203 21.3357 18.1028 21.1055 17.7367C21.0046 17.5762 20.9999 17.4405 20.9999 14.6808V11.7928H21.7928H22.5858V14.6521ZM9.16748 12.9276C8.97913 13.0734 8.97104 13.3411 9.14992 13.5066C9.31787 13.6619 9.54252 13.6558 9.70942 13.4915C9.92003 13.2841 9.88202 13.0276 9.621 12.8947C9.41466 12.7897 9.33837 12.7951 9.16748 12.9276ZM17.4252 12.9276C17.3196 13.0093 17.2811 13.0885 17.2811 13.2237C17.2811 13.7124 17.9621 13.7678 18.0773 13.2885C18.1056 13.1708 18.0798 13.1094 17.9472 12.9788C17.7527 12.7874 17.6227 12.7746 17.4252 12.9276ZM25.5638 12.9481C25.3997 13.1096 25.3925 13.2936 25.5429 13.4818C25.7672 13.7626 26.2498 13.5889 26.2498 13.2273C26.2498 13.0403 26.0261 12.8159 25.8397 12.8159C25.7617 12.8159 25.6376 12.8754 25.5638 12.9481ZM9.14227 14.7714C8.77756 15.1537 9.3329 15.6931 9.70942 15.3223C9.78325 15.2496 9.84368 15.1274 9.84368 15.0506C9.84368 14.8629 9.61596 14.6468 9.41822 14.6468C9.32481 14.6468 9.21303 14.6972 9.14227 14.7714ZM17.3905 14.7545C17.3228 14.8211 17.2811 14.934 17.2811 15.0506C17.2811 15.5074 17.8656 15.6159 18.0439 15.1922C18.2038 14.8119 17.6851 14.4644 17.3905 14.7545ZM25.5638 14.779C25.4899 14.8517 25.4295 14.9739 25.4295 15.0506C25.4295 15.2261 25.6559 15.4545 25.8298 15.4545C26.0351 15.4545 26.2498 15.2586 26.2498 15.0712C26.2498 14.8709 26.0332 14.6468 25.8397 14.6468C25.7617 14.6468 25.6376 14.7063 25.5638 14.779ZM16.0057 15.0019C16.3139 15.227 16.3429 15.67 16.0672 15.9415L15.9055 16.1007H13.5527H11.1999L11.014 15.9176C10.7609 15.6684 10.7541 15.3797 10.9947 15.1098C11.0864 15.007 11.2156 14.912 11.2818 14.8987C11.3481 14.8854 12.4033 14.8778 13.6268 14.8818C15.793 14.8889 15.8554 14.8921 16.0057 15.0019ZM9.13275 16.5853C8.89825 16.8162 9.09977 17.2854 9.43353 17.2854C9.61586 17.2854 9.84368 17.061 9.84368 16.8815C9.84368 16.5529 9.36725 16.3544 9.13275 16.5853ZM17.3905 16.5853C17.2276 16.7457 17.2447 17.0339 17.4252 17.1737C17.6621 17.3572 17.8926 17.3015 18.0424 17.0247C18.0964 16.925 18.0966 16.8655 18.0439 16.7399C17.9283 16.4653 17.593 16.3859 17.3905 16.5853ZM25.5429 16.6195C25.4805 16.6975 25.4295 16.8198 25.4295 16.8912C25.4295 17.0624 25.6615 17.2854 25.8397 17.2854C26.0332 17.2854 26.2498 17.0612 26.2498 16.8609C26.2498 16.5182 25.758 16.3502 25.5429 16.6195ZM14.3611 17.2701C14.2951 17.8225 14.0029 18.1134 13.5212 18.1063C13.0742 18.0996 12.7421 17.7348 12.7421 17.2505V16.9623H13.57H14.3978L14.3611 17.2701Z" fill="white"/>
</svg>

<svg width="28" height="21" fill="none" xmlns="http://www.w3.org/2000/svg"><path opacity=".6" fill-rule="evenodd" clip-rule="evenodd" d="M1.975.085a2.666 2.666 0 00-1.893 1.89C.01 2.244 0 3.386 0 10.452c0 5.329.02 8.267.056 8.456.192.998 1.071 1.85 2.1 2.035.227.041 3.81.059 11.868.058 12.588-.001 11.96.014 12.57-.306.655-.345 1.215-1.085 1.35-1.787.036-.19.056-3.127.056-8.456 0-8.988.02-8.454-.337-9.112a2.925 2.925 0 00-.48-.604C26.62.205 26.039 0 25.098 0c-.506 0-.601.015-.727.112a.387.387 0 00-.03.58c.094.087.217.106.778.125.57.02.711.043.97.16.43.196.68.433.885.844l.18.358V18.82l-.147.308c-.19.4-.566.756-.963.914l-.313.124-11.484.015c-7.243.01-11.612-.004-11.83-.037-.666-.101-1.152-.45-1.424-1.02l-.144-.304V2.18l.142-.298c.203-.426.443-.67.86-.871l.362-.176L12.704.808C23.011.78 23.198.779 23.274.676c.129-.173.098-.437-.067-.564L23.063 0 12.666.004C3.768.007 2.227.018 1.975.085zm2.751 2.069c-.634.248-1.01.77-1.051 1.459l-.024.413-.42.023c-.895.052-1.482.632-1.48 1.467 0 .516.372 1.068.864 1.282.13.057.42.117.643.134l.406.03v3.025c0 2.969.002 3.026.112 3.142.151.16.433.157.59-.007l.118-.124V6.946h1.643l-.015 5.318-.014 5.317-.128.176c-.348.481-.978.477-1.346-.008-.107-.14-.113-.23-.128-1.772-.016-1.572-.02-1.628-.133-1.747a.418.418 0 00-.59-.001c-.112.118-.114.16-.098 1.844l.016 1.724.163.288c.309.55.812.84 1.45.838.336 0 .462-.027.694-.145.348-.177.63-.456.795-.786l.125-.249.015-5.39.014-5.391.4-.03c.483-.036.717-.127 1.018-.394.566-.503.647-1.246.206-1.884-.26-.377-.647-.573-1.189-.604l-.423-.024-.025-.384c-.03-.438-.165-.783-.422-1.071-.402-.451-1.214-.64-1.786-.417zm8.399-.06a1.873 1.873 0 00-.81.518c-.416.466-.393.112-.393 6.094v5.348h-.318c-.946 0-1.596.595-1.596 1.459 0 .84.68 1.45 1.617 1.45h.285l.02.417c.046.92.688 1.538 1.605 1.543.905.005 1.57-.632 1.652-1.581l.03-.365.405-.03c.49-.037.812-.179 1.087-.479.546-.595.526-1.398-.049-1.963-.318-.314-.673-.45-1.165-.45h-.29l-.015-5.372-.014-5.371-.144-.301c-.175-.37-.476-.674-.808-.818-.27-.118-.874-.172-1.1-.1zm8.138.037c-.347.106-.813.531-.98.897l-.13.284-.017 2.779-.017 2.779-.397.03c-.468.034-.706.122-.986.364a1.416 1.416 0 00.009 2.153c.282.245.66.376 1.086.376h.289l.016 2.948c.016 2.89.018 2.953.134 3.2.065.139.22.36.343.492.64.683 1.77.66 2.404-.05.42-.469.41-.388.431-3.661l.019-2.914.397-.03c.477-.035.716-.127 1.006-.384.606-.539.61-1.568.007-2.103-.284-.253-.547-.355-1.017-.39l-.393-.031-.017-2.78-.017-2.778-.13-.284c-.347-.756-1.227-1.143-2.04-.897zm-15.529.87c.25.184.344.361.376.706l.03.332H4.484v-.253c0-.144.048-.35.113-.48.205-.417.776-.57 1.137-.305zm8.261.003c.078.057.19.186.251.286.107.18.11.294.124 5.474l.015 5.29h-1.642V8.763c0-5.017.004-5.301.099-5.48.207-.389.806-.534 1.153-.28zm8.139-.044c.133.06.277.178.341.281.107.173.11.266.11 2.911v2.733H21V6.163c0-2.967-.005-2.914.314-3.137.274-.192.498-.21.82-.066zm-12.992.88a.464.464 0 00-.119.272c0 .187.224.411.41.411.078 0 .203-.06.276-.132a.46.46 0 00.135-.272c0-.187-.228-.403-.426-.403a.412.412 0 00-.276.124zm8.248-.017c-.15.148-.145.448.01.59.208.19.492.137.626-.117.207-.394-.319-.785-.636-.473zm8.153.034a.532.532 0 00-.113.272c0 .171.232.394.41.394.193 0 .41-.224.41-.424 0-.343-.492-.51-.707-.242zM7.656 4.941c.276.135.418.44.334.715a.738.738 0 01-.206.318c-.139.108-.205.11-2.48.11-2.24 0-2.342-.003-2.473-.105-.397-.308-.302-.884.177-1.072.082-.032.998-.055 2.297-.057 1.95-.003 2.178.006 2.351.09zm1.477.713c-.26.256-.01.748.344.678.22-.043.3-.123.344-.339.071-.349-.428-.595-.688-.339zm8.254.003c-.264.26.026.787.367.667a.66.66 0 00.254-.195c.097-.128.102-.164.04-.312-.12-.285-.452-.365-.66-.16zm8.156.031a.532.532 0 00-.113.272c0 .171.232.394.41.394.19 0 .41-.224.41-.419 0-.354-.486-.523-.707-.247zM9.133 7.485c-.198.195-.116.552.15.651a.408.408 0 00.499-.2c.086-.186.078-.255-.052-.417a.416.416 0 00-.597-.034zm8.239-.01c-.145.158-.117.466.053.598.198.153.328.14.522-.05.133-.132.159-.193.13-.31-.074-.308-.507-.453-.705-.237zm8.176.027c-.197.206-.15.475.106.605.19.097.404.055.515-.102.283-.398-.283-.857-.62-.503zm-7.993 1.691c-.284.1-.378.498-.164.689.253.225.674.04.674-.297 0-.252-.286-.472-.51-.392zm8.114.041c-.344.143-.32.585.04.72.197.074.472-.053.52-.239.089-.351-.224-.62-.56-.481zm-16.56.094c-.16.224-.1.488.137.609.185.094.38.039.51-.145.117-.164.11-.272-.026-.442-.15-.19-.494-.202-.621-.022zm15.067.464c.292.148.408.554.246.861-.159.303-.175.305-2.63.305-2.453 0-2.47-.002-2.629-.305-.155-.296-.053-.711.205-.838.222-.109.302-.112 2.507-.104 1.681.007 2.191.025 2.301.08zm-14.88 1.231c-.434.158-.314.77.15.77.174 0 .398-.2.398-.355a.463.463 0 00-.29-.396 1.44 1.44 0 00-.17-.053 1.186 1.186 0 01-.087.034zm8.133.07c-.196.152-.21.489-.026.616.398.274.896-.177.58-.526-.181-.199-.372-.23-.554-.09zm8.237-.054c-.387.154-.247.754.175.754.433 0 .569-.534.186-.73-.175-.088-.195-.09-.361-.024zm-3.08 3.613c0 3.184.008 3.112-.369 3.342a.826.826 0 01-1.111-.257c-.101-.16-.106-.296-.106-3.056v-2.888h1.586v2.86zM9.167 12.928a.373.373 0 00-.017.579c.168.155.393.149.56-.015.21-.208.172-.464-.089-.597-.206-.105-.283-.1-.454.033zm8.258 0a.328.328 0 00-.144.296c0 .488.681.544.796.065.029-.118.003-.18-.13-.31-.194-.192-.324-.204-.522-.051zm8.139.02c-.164.162-.172.346-.021.534.224.28.707.107.707-.255 0-.187-.224-.411-.41-.411a.474.474 0 00-.276.132zM9.142 14.771c-.364.383.19.922.567.551a.46.46 0 00.135-.271c0-.188-.228-.404-.426-.404a.411.411 0 00-.276.124zm8.248-.017a.425.425 0 00-.109.297c0 .456.585.565.763.141.16-.38-.359-.728-.654-.438zm8.174.025a.46.46 0 00-.134.272c0 .175.226.403.4.403.205 0 .42-.195.42-.383 0-.2-.217-.424-.41-.424a.474.474 0 00-.276.132zm-9.558.223a.614.614 0 01.061.94l-.162.159H11.2l-.186-.183c-.253-.25-.26-.538-.02-.808.092-.103.222-.198.288-.211.066-.014 1.121-.021 2.345-.017 2.166.007 2.228.01 2.379.12zm-6.873 1.583c-.235.231-.033.7.3.7.183 0 .41-.224.41-.404 0-.328-.476-.527-.71-.296zm8.258 0a.401.401 0 00.034.589c.237.183.468.128.617-.15.054-.099.055-.159.002-.284-.116-.275-.451-.354-.654-.155zm8.152.034a.532.532 0 00-.113.272c0 .171.232.394.41.394.193 0 .41-.224.41-.424 0-.343-.492-.51-.707-.242zm-11.182.651c-.066.553-.358.843-.84.836-.447-.006-.779-.371-.779-.856v-.288h1.656l-.037.308z" fill="#fff"/></svg>
